X:1
T:Hiatermadl [2]
C:traditionell
R:volkstanz
A:Patt/Moos in Passeier, Suedtirol
%%textfont Helvetica-Narrow 10pt
%%begintext align
B:COMPA bd. 10, Volksmusik in suedtirol, taenze und spielstuecke aus der tonband-sammlung Dr Alfred Quellmalz (1940-42), Franz Kofler und Walter Deutsch, hrsg. Suedtiroler Kulturinstitut, Verlag Boehlau, Wien, Koeln, Weimar, 1999
N:tonart im buch: ganz in G,  erster ton d', ambitus d' - g''
N:im buch s. 356, nr. 238
N:im buch weitgehend zweistimmig
S:tonband-aufnahme Q-0661(23) 23/B14, vom 23.01.1941
S:ausfuehrende: Hans (27) und Rosa (26) Karlegger, vulgo Stierschneider, Stuls
S:besetzung: Harmonika und Gitarre
%%endtext
F:http://simonwascher.info/
Z:noten-transcription: Hans Jocher
%%endtext
F:http://simonwascher.info/
Z:abc transcription: Simon Wascher
M:2/4
L:1/8
V:1 up
V:2 merge down
K:G
V:1
P:A
d |\
gd Bd | c>d cd | f>e dc | GF ED |\
ee ez/g/ | dd dd | f>e dc | GF ED |\
ee ez/g/ | dd dd | f>e d>c | BB/B/ B ||
V:2
d |\
BB GB | A>B AB | d>c BA | GF ED |\
cc cz/g/ | BB BB | d>c BA |  GF ED |\
cc cz/g/ | BB BB | d>c B>A | GG/G/ G ||
V:1
P:A1
d |\
gd Bd | c>B Ad | f>e d>c | GF ED |\
ee ez/g/ | dd/d/ dd | f/f/f/f/ dc | GF ED |\
ee ez/g/ | dd dz/d/ | f>e d>c | BB/B/ B |]
V:2
d |\
BB GB | A>G FB | d>c B>A | GF ED |\
cc cz/g/ | BB/B/ BB | d/d/d/d/ BA |  GF ED |\
cc cz/g/ | BB Bz/B/ | d>c B>A | GG/G/ G |]
%%wordsfont Times-Italic 11pt
W:aus Simon Waschers TradArchiv
